images/info.svg

<svg width="16" height="16" viewBox="0 0 16 16" fill="none" xmlns="http://www.w3.org/2000/svg">
<g clip-path="url(#clip0_15_6)">
<path fill-rule="evenodd" clip-rule="evenodd" d="M8 0.889008C11.927 0.889008 15.111 4.07301 15.111 8.00001C15.111 11.927 11.927 15.111 8 15.111C4.073 15.111 0.889 11.927 0.889 8.00001C0.889 4.07301 4.073 0.889008 8 0.889008ZM8 1.94201C4.654 1.94201 1.942 4.65401 1.942 8.00001C1.942 11.346 4.654 14.058 8 14.058C11.346 14.058 14.058 11.346 14.058 8.00001C14.058 4.65401 11.346 1.94201 8 1.94201V1.94201ZM8 6.91701C8.275 6.91701 8.5 7.12701 8.525 7.39601L8.527 7.44401V11.369C8.527 11.66 8.291 11.896 8 11.896C7.725 11.896 7.5 11.686 7.475 11.417L7.473 11.369V7.44401C7.473 7.15301 7.709 6.91701 8 6.91701V6.91701ZM8 4.44401C8.357 4.44401 8.646 4.73401 8.646 5.09101C8.646 5.44801 8.357 5.73701 8 5.73701C7.643 5.73701 7.354 5.44701 7.354 5.09101C7.354 4.73401 7.643 4.44401 8 4.44401Z" fill="#155724"/>
</g>
<defs>
<clipPath id="clip0_15_6">
<rect width="16" height="16" fill="white"/>
</clipPath>
</defs>
</svg>

<svg xmlns="http://www.w3.org/2000/svg" width="16" height="16" viewBox="0 0 16 16">
    <g fill="none" fill-rule="evenodd">
        <path fill="#D8D8D8" fill-opacity="0" d="M0 0H16V16H0z"/>
        <path fill="#26344A" d="M8 .889c3.927 0 7.111 3.184 7.111 7.111 0 3.927-3.184 7.111-7.111 7.111C4.073 15.111.889 11.927.889 8 .889 4.073 4.073.889 8 .889zm0 1.053C4.654 1.942 1.942 4.654 1.942 8c0 3.346 2.712 6.058 6.058 6.058 3.346 0 6.058-2.712 6.058-6.058 0-3.346-2.712-6.058-6.058-6.058zm0 4.975c.275 0 .5.21.525.479l.002.048v3.925c0 .291-.236.527-.527.527-.275 0-.5-.21-.525-.479l-.002-.048V7.444c0-.291.236-.527.527-.527zm0-2.473c.357 0 .646.29.646.647 0 .357-.289.646-.646.646-.357 0-.646-.29-.646-.646 0-.357.289-.647.646-.647z"/>
    </g>
</svg>
